X:199
T:Gösta rackares polska,
T:(SvL Halland 199)
R:Polska
S:Efter Johannes Erlanson
O:Gunnarp, Halland
B:Svenska Låtar Halland
N:Gösta var rackare i Kalvs pastorat. Han brukade sjunga polskan. Erlanson hade lärt den av sin moder, som var född 1812. (SvL)
Z:Till abc Jonas Brunskog
M:3/4
L:1/8
K:A
|:(5ece^gb (a>=g)|e>^d ef/e/ (=d>c)|A>^G Ac/e/ (g>^f)|d2 e2 z2:|
|:A2 cd/c/ (3B^GB|A2 A>^G E2|A2 cd/c/ (3B^GB|A2 A>^G E>G|A>G (3ABc (e>d)|(B^G) A2 z2:|

